X:1
T: The Bow-Legged Mannie
C:C. Sherrit
R:Reel
Q: 232
K:D
M:4/4
L:1/8
((3ABc)|:dD FA dc BA|BE GB ed cB|ce Ac eA ce|df Ad FA Bc|
dD FA dc BA|BE GB ed cB|ce Ac eA ce|1d2 d2 d2 ((3ABc):|2d2 d2 d2 ed|
|:ce Ac eA ce|df Ad fe dc|BG Bd gf ed|ef ed dc BA|
|1ce Ac eA ce|df Ad fe dc|BG Bd gf ed|ce cA d2 ed:|
|2dD FA dc BA|BE GB ed cB|ce Ac eA ce|d2 d2 d2||
